libs/ui/packages/crypto-icons/src/svg/0XBTC.svg

<svg width="24" height="24" viewBox="0 0 24 24" fill="none">
<path fill-rule="evenodd" clip-rule="evenodd" d="M12 20.4435C7.33652 20.4435 3.55652 16.6635 3.55652 12C3.55652 7.33652 7.33652 3.55652 12 3.55652C16.6635 3.55652 20.4435 7.33652 20.4435 12C20.4435 16.6635 16.6635 20.4435 12 20.4435ZM12 19.947C16.389 19.947 19.947 16.389 19.947 12C19.947 7.61102 16.389 4.05302 12 4.05302C7.61102 4.05302 4.05302 7.61102 4.05302 12C4.05302 16.389 7.61102 19.947 12 19.947Z" fill="white"/>
<path d="M10.5675 18.099C10.7535 18.0225 11.481 17.4615 12.1838 16.8578C13.0548 16.1169 13.8926 15.3379 14.6948 14.523C15.4643 13.7535 15.75 13.4228 15.7973 13.2518C15.9638 12.651 14.1435 6.04727 13.773 5.90552C13.5473 5.81852 11.5283 7.49777 9.74026 9.25577C8.69176 10.2863 8.40151 10.629 8.37901 10.8533C8.36401 11.0265 8.42401 11.4608 8.53576 11.9753C8.98051 14.0168 9.78976 16.8375 10.1993 17.7638C10.371 18.1568 10.3905 18.174 10.5668 18.099H10.5675Z" fill="white"/>
<path fill-rule="evenodd" clip-rule="evenodd" d="M12 20.4435C7.33649 20.4435 3.55649 16.6635 3.55649 12C3.55649 7.33649 7.33649 3.55649 12 3.55649C16.6635 3.55649 20.4435 7.33649 20.4435 12C20.4435 16.6635 16.6635 20.4435 12 20.4435ZM12 19.947C16.389 19.947 19.947 16.389 19.947 12C19.947 7.61099 16.389 4.05299 12 4.05299C7.61099 4.05299 4.05299 7.61099 4.05299 12C4.05299 16.389 7.61099 19.947 12 19.947Z" fill="#FF914D"/>
<path d="M10.5675 18.099C10.7535 18.0225 11.481 17.4615 12.1837 16.8577C13.0548 16.1169 13.8926 15.3379 14.6947 14.523C15.4642 13.7535 15.75 13.4227 15.7972 13.2517C15.9637 12.651 14.1435 6.04724 13.773 5.90549C13.5472 5.81849 11.5282 7.49774 9.74023 9.25574C8.69173 10.2862 8.40148 10.629 8.37898 10.8532C8.36398 11.0265 8.42398 11.4607 8.53573 11.9752C8.98048 14.0167 9.78973 16.8375 10.1992 17.7637C10.371 18.1567 10.3905 18.174 10.5667 18.099H10.5675Z" fill="#FF914D"/>
</svg>

<svg width="24" height="24" viewBox="0 0 24 24" fill="none"><path fill="#fff" fill-rule="evenodd" d="M12 20.444A8.443 8.443 0 0 1 3.557 12 8.443 8.443 0 0 1 12 3.557 8.443 8.443 0 0 1 20.444 12 8.443 8.443 0 0 1 12 20.444m0-.497a7.947 7.947 0 1 0 0-15.894 7.947 7.947 0 0 0 0 15.894" clip-rule="evenodd"/><path fill="#fff" d="M10.568 18.099c.186-.076.913-.637 1.616-1.241q1.307-1.112 2.51-2.335c.77-.77 1.056-1.1 1.103-1.271.167-.601-1.654-7.205-2.024-7.346-.226-.087-2.245 1.592-4.033 3.35-1.048 1.03-1.338 1.373-1.361 1.597-.015.174.045.608.157 1.122.445 2.042 1.254 4.862 1.663 5.789.172.393.191.41.368.335"/><path fill="#ff914d" fill-rule="evenodd" d="M12 20.444A8.443 8.443 0 0 1 3.556 12 8.443 8.443 0 0 1 12 3.556 8.443 8.443 0 0 1 20.444 12 8.443 8.443 0 0 1 12 20.444m0-.497a7.947 7.947 0 1 0 0-15.894 7.947 7.947 0 0 0 0 15.894" clip-rule="evenodd"/><path fill="#ff914d" d="M10.568 18.099c.186-.076.913-.637 1.616-1.241q1.307-1.112 2.51-2.335c.77-.77 1.056-1.1 1.103-1.271.167-.601-1.654-7.205-2.024-7.347-.226-.087-2.245 1.593-4.033 3.35-1.048 1.031-1.339 1.374-1.361 1.598-.015.174.045.608.157 1.122.444 2.042 1.254 4.862 1.663 5.789.172.393.191.41.368.335"/></svg>
